X:1
T:All I Have To Do Is Dream
T:All I have to do is dream
T:Boudleaux Bryant
C:Boudleaux Bryant, Felice Bryant
Z:All Rights Reserved
L:1/8
M:4/4
K:F
V:1 treble nm="Electric Piano"
%%MIDI program 4
V:1
 z4 z2 B2 |:"F" A2 A2"Dm" A4 |"Gm" z2 BB"C7" c3 B |"F" A2 A2"Dm" A4 |"Gm" z BBB"C7" c3 B | %5
w: When|I want you|in my arms when|I want you|and all your charms when-|
"F" AA A2"Dm" d2 AG |"Bb" FFFF"C7" G3 F |"F" AGFC"Dm" D4 |"Bb" d2 d2"C7" c3 B |"F" A2 A2"Dm" A4 | %10
w: ev- er I want you *|all I have to do is|drea * * * *|Dream dream dream when|I feel blue|
"Gm" z2 BB"C7" c3 B |"F" A2 A2"Dm" A4 |"Gm" z BBB"C7" c3 B |"F" AA A2"Dm" d2 AG | %14
w: in the night and|I need you|to hold me tight when-|ev- er I want you *|
"Bb" FFFF"C7" G3 F |"F" AG"Bb" F6- |"F" F8 |"Bb" dddd d4 |"Am" cccc c4 |"Gm" BB B4"C7" cc |"F" A8 | %21
w: all I have to do is|dream * *||I can make you mine|taste your lips of wine|an- y- time night or|day|
"Bb" dddd d4 |"Am" z2 e2 c3 c |"G7" d d2 d d c2 =B |"C7" c6 _B2 |"F" A2 A2"Dm" A4 | %26
w: onl- ly trou- ble is|Gee Whiz I'm|dream- ing my life * a-|way I|need you so|
"Gm" z BBB"C7" c3 B |"F" A2 A2 A4 |"Gm" z BBB"C7" c3 B |"F" AA A2"Dm" d2 AG |"Bb" FFFF"C7" G3 F | %31
w: that I could die I|love you so|and that is why When-|ev- er I want you *|all I have to do is|
"F" AGFC"Dm" D4 |"Gm" BBBB"C7" A3 G |"F" AG F6- |"Gm" F2 z4"C7" B2 :|"F" AG"Bb" F6- |"F" F6 z2 |] %37
w: dream * * * *|all I have to do is|dream * *|* when|dream
 * *||

